findly-builder/apps/searchassist/src/assets/images/helpIcon.svg

<?xml version="1.0" encoding="UTF-8"?>
<svg width="12px" height="12px" viewBox="0 0 12 12" version="1.1" xmlns="http://www.w3.org/2000/svg" xmlns:xlink="http://www.w3.org/1999/xlink">
    <!-- Generator: Sketch 52.3 (67297) - http://www.bohemiancoding.com/sketch -->
    <title>helpIcon</title>
    <desc>Created with Sketch.</desc>
    <g id="Page-1" stroke="none" stroke-width="1" fill="none" fill-rule="evenodd">
        <path d="M7,9.75 L7,8.25 C7,8.17708297 6.97656273,8.11718773 6.9296875,8.0703125 C6.88281227,8.02343727 6.82291703,8 6.75,8 L5.25,8 C5.17708297,8 5.11718773,8.02343727 5.0703125,8.0703125 C5.02343727,8.11718773 5,8.17708297 5,8.25 L5,9.75 C5,9.82291703 5.02343727,9.88281227 5.0703125,9.9296875 C5.11718773,9.97656273 5.17708297,10 5.25,10 L6.75,10 C6.82291703,10 6.88281227,9.97656273 6.9296875,9.9296875 C6.97656273,9.88281227 7,9.82291703 7,9.75 Z M9,4.5 C9,4.04166437 8.8554702,3.61718945 8.56640625,3.2265625 C8.2773423,2.83593555 7.91666883,2.53385523 7.484375,2.3203125 C7.05208117,2.10676977 6.60937727,2 6.15625,2 C4.89061867,2 3.9244825,2.55468195 3.2578125,3.6640625 C3.17968711,3.78906312 3.20052023,3.89843703 3.3203125,3.9921875 L4.3515625,4.7734375 C4.38802102,4.80468766 4.43749969,4.8203125 4.5,4.8203125 C4.58333375,4.8203125 4.64843727,4.78906281 4.6953125,4.7265625 C4.97135555,4.37239406 5.19531164,4.13281312 5.3671875,4.0078125 C5.54427172,3.88281188 5.76822781,3.8203125 6.0390625,3.8203125 C6.28906375,3.8203125 6.51171777,3.88802016 6.70703125,4.0234375 C6.90234473,4.15885484 7,4.31249914 7,4.484375 C7,4.68229266 6.94791719,4.84114523 6.84375,4.9609375 C6.73958281,5.08072977 6.56250125,5.19791609 6.3125,5.3125 C5.98437336,5.45833406 5.68359512,5.68359223 5.41015625,5.98828125 C5.13671738,6.29297027 5,6.61978992 5,6.96875 L5,7.25 C5,7.32291703 5.02343727,7.38281227 5.0703125,7.4296875 C5.11718773,7.47656273 5.17708297,7.5 5.25,7.5 L6.75,7.5 C6.82291703,7.5 6.88281227,7.47656273 6.9296875,7.4296875 C6.97656273,7.38281227 7,7.32291703 7,7.25 C7,7.15104117 7.05598902,7.02213621 7.16796875,6.86328125 C7.27994848,6.70442629 7.42187414,6.57552133 7.59375,6.4765625 C7.7604175,6.38281203 7.88802039,6.30859402 7.9765625,6.25390625 C8.06510461,6.19921848 8.18489508,6.10807355 8.3359375,5.98046875 C8.48697992,5.85286395 8.60286418,5.7278652 8.68359375,5.60546875 C8.76432332,5.4830723 8.83723926,5.3255218 8.90234375,5.1328125 C8.96744824,4.9401032 9,4.72916781 9,4.5 Z M11.1953125,2.9921875 C11.7317735,3.90885875 12,4.91145289 12,6 C12,7.08854711 11.7317735,8.09244332 11.1953125,9.01171875 C10.6588515,9.93099418 9.93099418,10.6588515 9.01171875,11.1953125 C8.09244332,11.7317735 7.08854711,12 6,12 C4.91145289,12 3.90755668,11.7317735 2.98828125,11.1953125 C2.06900582,10.6588515 1.34114852,9.93099418 0.8046875,9.01171875 C0.268226484,8.09244332 0,7.08854711 0,6 C0,4.91145289 0.268226484,3.90755668 0.8046875,2.98828125 C1.34114852,2.06900582 2.06900582,1.34114852 2.98828125,0.8046875 C3.90755668,0.268226484 4.91145289,0 6,0 C7.08854711,0 8.09244332,0.268226484 9.01171875,0.8046875 C9.93099418,1.34114852 10.6588515,2.07030789 11.1953125,2.9921875 Z" id="helpIcon" fill="#8A959F"></path>
    </g>
</svg>

<svg width="12" height="12" xmlns="http://www.w3.org/2000/svg"><path d="M7 9.75v-1.5a.243.243 0 0 0-.07-.18.243.243 0 0 0-.18-.07h-1.5a.243.243 0 0 0-.18.07.243.243 0 0 0-.07.18v1.5c0 .073.023.133.07.18.047.047.107.07.18.07h1.5a.243.243 0 0 0 .18-.07.243.243 0 0 0 .07-.18ZM9 4.5c0-.458-.145-.883-.434-1.273a2.963 2.963 0 0 0-1.082-.907A2.967 2.967 0 0 0 6.156 2c-1.265 0-2.232.555-2.898 1.664-.078.125-.057.234.062.328l1.032.781a.22.22 0 0 0 .148.047.23.23 0 0 0 .195-.093c.276-.355.5-.594.672-.72.177-.124.401-.187.672-.187.25 0 .473.068.668.203.195.136.293.29.293.461a.7.7 0 0 1-.156.477c-.104.12-.281.237-.532.351a2.676 2.676 0 0 0-.902.676c-.273.305-.41.632-.41.98v.282c0 .073.023.133.07.18.047.047.107.07.18.07h1.5a.243.243 0 0 0 .18-.07.243.243 0 0 0 .07-.18c0-.099.056-.228.168-.387a1.32 1.32 0 0 1 .426-.386c.166-.094.294-.168.383-.223a3.29 3.29 0 0 0 .359-.274c.151-.127.267-.252.348-.375A2.063 2.063 0 0 0 9 4.5Zm2.195-1.508A5.85 5.85 0 0 1 12 6a5.87 5.87 0 0 1-.805 3.012 5.973 5.973 0 0 1-2.183 2.183A5.87 5.87 0 0 1 6 12a5.87 5.87 0 0 1-3.012-.805A5.973 5.973 0 0 1 .805 9.012 5.87 5.87 0 0 1 0 6a5.87 5.87 0 0 1 .805-3.012A5.973 5.973 0 0 1 2.988.805 5.87 5.87 0 0 1 6 0a5.87 5.87 0 0 1 3.012.805 5.964 5.964 0 0 1 2.183 2.187Z" fill="#8A959F" fill-rule="evenodd"/></svg>
